material/.icons/material/thermostat-box.svg

<svg xmlns="http://www.w3.org/2000/svg" viewBox="0 0 24 24"><path d="M5 3a2 2 0 00-2 2v14a2 2 0 002 2h14a2 2 0 002-2V5a2 2 0 00-2-2H5m7 2c1.57 0 3 .5 4.19 1.4L14 8.56c-.57-.35-1.26-.56-2-.56a4 4 0 00-4 4c0 1.1.45 2.1 1.17 2.83l-2.12 2.12A6.976 6.976 0 015 12a7 7 0 017-7m5.6 2.81A6.86 6.86 0 0119 12c0 1.93-.78 3.68-2.05 4.95l-2.12-2.12C15.55 14.1 16 13.1 16 12c0-.74-.21-1.43-.57-2l2.17-2.19z"/></svg>

<?xml version="1.0" encoding="UTF-8"?><!DOCTYPE svg PUBLIC "-//W3C//DTD SVG 1.1//EN" "http://www.w3.org/Graphics/SVG/1.1/DTD/svg11.dtd"><svg xmlns="http://www.w3.org/2000/svg" xmlns:xlink="http://www.w3.org/1999/xlink" version="1.1" id="mdi-thermostat-box" width="24" height="24" viewBox="0 0 24 24"><path d="M5,3A2,2 0 0,0 3,5V19A2,2 0 0,0 5,21H19A2,2 0 0,0 21,19V5C21,3.89 20.1,3 19,3H5M12,5C13.57,5 15,5.5 16.19,6.4L14,8.56C13.43,8.21 12.74,8 12,8A4,4 0 0,0 8,12C8,13.1 8.45,14.1 9.17,14.83L7.05,16.95C5.78,15.68 5,13.93 5,12A7,7 0 0,1 12,5M17.6,7.81C18.5,9 19,10.43 19,12C19,13.93 18.22,15.68 16.95,16.95L14.83,14.83C15.55,14.1 16,13.1 16,12C16,11.26 15.79,10.57 15.43,10L17.6,7.81Z" /></svg>
